X: 7
T: Mulqueen's
R: reel
M: 4/4
L: 1/8
K: Gmaj
|:B2 Ac BG G2|BGdG BG G2|B2 Ac BG G2|(3Bcd ef gedc|
B2 Ac BG G2|BGdG BG G2|B2 Ac BG G2|(3Bcd ef g2 fg||
|:A2 AG A3G|FGAB cBAG|A2 AG A3G|FDEF G2 FG|
A2 AG A3G|FGAB c2 Bc|dB B2 cA A2|GBAG fdcA||


Tune 66	Setting 12517

